src/images/std-icons/std-toughest_questions.svg

<svg xmlns="http://www.w3.org/2000/svg" width="512" height="512" viewBox="0 0 512 512">
  <title>toughest questions</title>
  <path fill="#000" fill-rule="nonzero" d="M405.333333,277.333333 L448,277.333333 C459.782075,277.333333 469.333333,267.782075 469.333333,256 L469.333333,149.333333 C469.333333,137.551259 459.782075,128 448,128 L362.666668,128 L362.666668,106.666668 C362.666668,71.3204432 334.01289,42.666668 298.666668,42.666668 C263.320443,42.666668 234.666668,71.3204432 234.666668,106.666668 L234.666668,128 L149.333333,128 C137.551259,128 128,137.551259 128,149.333333 L128,234.666668 L106.666668,234.666668 C71.3204432,234.666668 42.666668,263.320443 42.666668,298.666668 C42.666668,334.01289 71.3204432,362.666668 106.666668,362.666668 L128,362.666668 L128,448 C128,459.782075 137.551259,469.333333 149.333333,469.333333 L448,469.333333 C459.782075,469.333333 469.333333,459.782075 469.333333,448 L469.333333,341.333333 C469.333333,329.551259 459.782075,320 448,320 L405.333333,320 C393.551259,320 384,310.448741 384,298.666668 C384,286.884592 393.551259,277.333333 405.333333,277.333333 Z M405.333333,362.666667 L426.666667,362.666667 L426.666667,426.666667 L170.666667,426.666667 L170.666667,341.333333 C170.666667,329.551259 161.115408,320 149.333333,320 L106.666667,320 C94.884592,320 85.3333333,310.448741 85.3333333,298.666667 C85.3333333,286.884592 94.884592,277.333333 106.666667,277.333333 L149.333333,277.333333 C161.115408,277.333333 170.666667,267.782075 170.666667,256 L170.666667,170.666667 L256,170.666667 C267.782075,170.666667 277.333333,161.115408 277.333333,149.333333 L277.333333,106.666667 C277.333333,94.884592 286.884592,85.3333333 298.666667,85.3333333 C310.448741,85.3333333 320,94.884592 320,106.666667 L320,149.333333 C320,161.115408 329.551259,170.666667 341.333333,170.666667 L426.666667,170.666667 L426.666667,234.666667 L405.333333,234.666667 C369.98711,234.666667 341.333333,263.320443 341.333333,298.666667 C341.333333,334.01289 369.98711,362.666666 405.333333,362.666667 Z"/>
</svg>

<svg xmlns="http://www.w3.org/2000/svg" viewBox="0 0 512 512">
  <title>
    toughest questions
  </title>
  <path d="M405.33 277.33H448A21.33 21.33 0 0 0 469.33 256V149.33A21.33 21.33 0 0 0 448 128h-85.33v-21.33a64 64 0 0 0-128 0V128h-85.34A21.33 21.33 0 0 0 128 149.33v85.34h-21.33a64 64 0 1 0 0 128H128V448a21.33 21.33 0 0 0 21.33 21.33H448A21.33 21.33 0 0 0 469.33 448V341.33A21.33 21.33 0 0 0 448 320h-42.67a21.33 21.33 0 0 1 0-42.67zm0 85.34h21.34v64h-256v-85.34A21.33 21.33 0 0 0 149.33 320h-42.66a21.33 21.33 0 1 1 0-42.67h42.66A21.33 21.33 0 0 0 170.67 256v-85.33H256a21.33 21.33 0 0 0 21.33-21.34v-42.66a21.33 21.33 0 0 1 42.67 0v42.66a21.33 21.33 0 0 0 21.33 21.34h85.34v64h-21.34a64 64 0 0 0 0 128z"/>
</svg>
